icons/svg/place_of_worship/islamic3.svg

<?xml version="1.0" encoding="UTF-8" standalone="no"?>
<!-- Created with Inkscape (http://www.inkscape.org/) -->

<svg
   xmlns:dc="http://purl.org/dc/elements/1.1/"
   xmlns:cc="http://creativecommons.org/ns#"
   xmlns:rdf="http://www.w3.org/1999/02/22-rdf-syntax-ns#"
   xmlns:svg="http://www.w3.org/2000/svg"
   xmlns="http://www.w3.org/2000/svg"
   xmlns:sodipodi="http://sodipodi.sourceforge.net/DTD/sodipodi-0.dtd"
   xmlns:inkscape="http://www.inkscape.org/namespaces/inkscape"
   version="1.0"
   width="580"
   height="580"
   id="svg2"
   sodipodi:version="0.32"
   inkscape:version="0.91 r13725"
   sodipodi:docname="islamic3.svg"
   inkscape:output_extension="org.inkscape.output.svg.inkscape">
  <metadata
     id="metadata2975">
    <rdf:RDF>
      <cc:Work
         rdf:about="">
        <dc:format>image/svg+xml</dc:format>
        <dc:type
           rdf:resource="http://purl.org/dc/dcmitype/StillImage" />
        <cc:license
           rdf:resource="http://web.resource.org/cc/PublicDomain" />
        <dc:language>en</dc:language>
      </cc:Work>
    </rdf:RDF>
  </metadata>
  <sodipodi:namedview
     inkscape:window-height="1051"
     inkscape:window-width="1920"
     inkscape:pageshadow="2"
     inkscape:pageopacity="0.0"
     guidetolerance="10.0"
     gridtolerance="10.0"
     objecttolerance="10.0"
     borderopacity="1.0"
     bordercolor="#666666"
     pagecolor="#ffffff"
     id="base"
     inkscape:zoom="0.92167712"
     inkscape:cx="210.17883"
     inkscape:cy="320.17225"
     inkscape:window-x="0"
     inkscape:window-y="0"
     inkscape:current-layer="svg2"
     showgrid="false"
     inkscape:window-maximized="1" />
  <defs
     id="defs4">
    <inkscape:perspective
       sodipodi:type="inkscape:persp3d"
       inkscape:vp_x="0 : 290 : 1"
       inkscape:vp_y="0 : 1000 : 0"
       inkscape:vp_z="580 : 290 : 1"
       inkscape:persp3d-origin="290 : 193.33333 : 1"
       id="perspective2441" />
    <inkscape:perspective
       id="perspective2466"
       inkscape:persp3d-origin="372.04724 : 350.78739 : 1"
       inkscape:vp_z="744.09448 : 526.18109 : 1"
       inkscape:vp_y="0 : 1000 : 0"
       inkscape:vp_x="0 : 526.18109 : 1"
       sodipodi:type="inkscape:persp3d" />
    <inkscape:perspective
       id="perspective3333"
       inkscape:persp3d-origin="372.04724 : 350.78739 : 1"
       inkscape:vp_z="744.09448 : 526.18109 : 1"
       inkscape:vp_y="0 : 1000 : 0"
       inkscape:vp_x="0 : 526.18109 : 1"
       sodipodi:type="inkscape:persp3d" />
    <inkscape:perspective
       id="perspective3401"
       inkscape:persp3d-origin="372.04724 : 350.78739 : 1"
       inkscape:vp_z="744.09448 : 526.18109 : 1"
       inkscape:vp_y="0 : 1000 : 0"
       inkscape:vp_x="0 : 526.18109 : 1"
       sodipodi:type="inkscape:persp3d" />
    <inkscape:perspective
       id="perspective3464"
       inkscape:persp3d-origin="372.04724 : 350.78739 : 1"
       inkscape:vp_z="744.09448 : 526.18109 : 1"
       inkscape:vp_y="0 : 1000 : 0"
       inkscape:vp_x="0 : 526.18109 : 1"
       sodipodi:type="inkscape:persp3d" />
    <inkscape:perspective
       id="perspective3581"
       inkscape:persp3d-origin="225 : 150 : 1"
       inkscape:vp_z="450 : 225 : 1"
       inkscape:vp_y="0 : 1000 : 0"
       inkscape:vp_x="0 : 225 : 1"
       sodipodi:type="inkscape:persp3d" />
    <inkscape:perspective
       id="perspective4312"
       inkscape:persp3d-origin="225 : 150 : 1"
       inkscape:vp_z="450 : 225 : 1"
       inkscape:vp_y="0 : 1000 : 0"
       inkscape:vp_x="0 : 225 : 1"
       sodipodi:type="inkscape:persp3d" />
  </defs>
  <g
     id="g1327">
    <path
       d="M 66.275,1.768 C 24.94,1.768 1.704,23.139 1.704,66.804 L 1.704,516.927 C 1.704,557.771 22.599,579.156 63.896,579.156 L 515.92,579.156 C 557.227,579.156 578.149,558.841 578.149,516.927 L 578.149,66.804 C 578.149,24.203 557.227,1.768 514.628,1.768 C 514.624,1.768 66.133,1.625 66.275,1.768 z "
       style="fill:#111;stroke:#eee;stroke-width:3.40799999"
       id="path1329" />
  </g>
  <g
     style="opacity:1"
     transform="matrix(1.5921213,0,0,1.5921213,-352.49255,-301.19087)"
     id="g6577">
    <path
       sodipodi:nodetypes="csssssssssssssssccsssscccscccssssssssc"
       id="path6579"
       d="m 374.94899,524.51727 c -5.6741,-1.12821 -16.70034,-4.29499 -24.50274,-7.03733 -39.98769,-14.05453 -78.60206,-53.63421 -93.01112,-95.33628 -5.02689,-14.5485 -8.26957,-30.39029 -8.07876,-51.72233 0.18629,-21.34713 3.05187,-35.04228 8.07876,-49.59078 13.73716,-39.75746 48.48413,-77.13033 86.79931,-93.35893 13.91946,-5.89565 44.84034,-11.62967 62.7134,-11.62967 26.63921,0 77.07899,16.84186 87.29092,29.14647 5.22069,6.29056 0.36439,6.50378 -25.36216,1.11354 -20.58854,-4.31371 -27.41825,-4.71154 -43.33738,-2.52436 -45.83657,6.29761 -87.07178,40.84116 -103.55151,86.74715 -7.77411,21.65556 -7.80387,60.59983 -0.0627,82.11702 16.02656,44.54744 56.62329,79.38394 101.46024,87.06419 13.9149,2.38351 20.29595,2.00054 43.13125,-2.5886 14.74016,-2.96227 27.75776,-4.46426 28.92797,-3.33775 2.72492,2.62316 -9.53268,11.34615 -27.50679,19.575 -26.53978,12.15029 -65.24223,16.87951 -92.98864,11.36266 z M 460.09505,422.0141 c -0.78052,-1.26291 1.45486,-10.7461 4.96752,-21.07373 3.51267,-10.32766 6.38668,-19.09515 6.38668,-19.48331 0,-0.38813 -7.525,-6.07543 -16.72221,-12.63843 -9.19722,-6.56301 -16.72221,-12.94199 -16.72221,-14.17552 0,-1.23351 9.55095,-2.579 21.22433,-2.98999 l 21.22435,-0.74719 6.68775,-19.16584 c 3.6783,-10.54124 7.90512,-19.57165 9.39302,-20.0676 1.48786,-0.49595 5.80904,8.41809 9.60255,19.809 l 6.8973,20.71076 21.87064,0 c 12.06356,0 21.48608,1.05059 21.01305,2.34293 -0.47165,1.28862 -8.09311,7.65353 -16.93659,14.14424 -8.84347,6.49074 -16.07904,12.78016 -16.07904,13.97652 0,1.19639 2.31538,8.90499 5.14529,17.13029 4.95515,14.40242 6.54304,24.44014 3.8662,24.44014 -0.70352,0 -8.35585,-5.20961 -17.00523,-11.57691 -8.64936,-6.36731 -16.80589,-11.57691 -18.1256,-11.57691 -1.31972,0 -8.42792,4.41656 -15.79603,9.8146 -17.81352,13.05055 -19.23502,13.80763 -20.89177,11.12695 z"
       style="fill:#ffffff"
       inkscape:connector-curvature="0" />
    <path
       style="fill:#ffffff;stroke:none;stroke-width:14.39999962;stroke-linecap:round;stroke-linejoin:round;stroke-miterlimit:4;stroke-dasharray:none;stroke-opacity:1"
       d="m 496.11458,309.70606 c -5.4844,3.94887 -6.54022,11.68793 -9.4375,17.46875 -2.63624,7.22265 -5.08211,14.52938 -7.65625,21.78125 -13.8735,1.18214 -28.57294,-0.64006 -41.90625,3.6875 -3.36635,3.97288 3.49423,7.07989 5.75,9.65625 8.49761,6.97024 17.75342,12.89692 26.34375,19.78125 -3.65416,13.32797 -10.39352,26.22977 -11.15625,40.125 2.29297,6.16621 9.30037,1.11392 12.50869,-1.32066 8.76383,-5.78573 16.95888,-13.37013 26.39756,-17.67934 12.06843,6.45295 22.32418,16.2866 34.375,22.9375 5.3842,0.1545 3.82457,-7.43909 3.1875,-10.875 -1.98837,-11.0572 -7.51602,-21.82388 -9.3125,-32.59375 9.90221,-10.18885 23.05458,-16.58428 32.5,-27.21875 0.60599,-5.33705 -7.23109,-4.04746 -10.625,-4.875 -10.85994,-0.69671 -21.7511,-0.24672 -32.625,-0.375 -5.15103,-13.28221 -7.50252,-28.2007 -15.9375,-39.8125 -0.65906,-0.52935 -1.52611,-0.93797 -2.40625,-0.6875 z"
       id="path6581"
       inkscape:connector-curvature="0" />
  </g>
</svg>

<?xml version="1.0" encoding="UTF-8" standalone="no"?>
<!-- Created with Inkscape (http://www.inkscape.org/) -->
<svg
   xmlns:dc="http://purl.org/dc/elements/1.1/"
   xmlns:cc="http://creativecommons.org/ns#"
   xmlns:rdf="http://www.w3.org/1999/02/22-rdf-syntax-ns#"
   xmlns:svg="http://www.w3.org/2000/svg"
   xmlns="http://www.w3.org/2000/svg"
   xmlns:sodipodi="http://sodipodi.sourceforge.net/DTD/sodipodi-0.dtd"
   xmlns:inkscape="http://www.inkscape.org/namespaces/inkscape"
   version="1.0"
   width="580"
   height="580"
   id="svg2"
   sodipodi:version="0.32"
   inkscape:version="0.46"
   sodipodi:docname="place_of_worship_islamic3.svg"
   sodipodi:docbase="s:\Data\FacilityIcons"
   inkscape:output_extension="org.inkscape.output.svg.inkscape">
  <metadata
     id="metadata2975">
    <rdf:RDF>
      <cc:Work
         rdf:about="">
        <dc:format>image/svg+xml</dc:format>
        <dc:type
           rdf:resource="http://purl.org/dc/dcmitype/StillImage" />
        <cc:license
           rdf:resource="http://web.resource.org/cc/PublicDomain" />
        <dc:language>en</dc:language>
      </cc:Work>
    </rdf:RDF>
  </metadata>
  <sodipodi:namedview
     inkscape:window-height="1003"
     inkscape:window-width="1400"
     inkscape:pageshadow="2"
     inkscape:pageopacity="0.0"
     guidetolerance="10.0"
     gridtolerance="10.0"
     objecttolerance="10.0"
     borderopacity="1.0"
     bordercolor="#666666"
     pagecolor="#ffffff"
     id="base"
     inkscape:zoom="0.65172414"
     inkscape:cx="-57.954519"
     inkscape:cy="172.10413"
     inkscape:window-x="0"
     inkscape:window-y="20"
     inkscape:current-layer="svg2"
     showgrid="false" />
  <defs
     id="defs4">
    <inkscape:perspective
       sodipodi:type="inkscape:persp3d"
       inkscape:vp_x="0 : 290 : 1"
       inkscape:vp_y="0 : 1000 : 0"
       inkscape:vp_z="580 : 290 : 1"
       inkscape:persp3d-origin="290 : 193.33333 : 1"
       id="perspective2441" />
    <inkscape:perspective
       id="perspective2466"
       inkscape:persp3d-origin="372.04724 : 350.78739 : 1"
       inkscape:vp_z="744.09448 : 526.18109 : 1"
       inkscape:vp_y="0 : 1000 : 0"
       inkscape:vp_x="0 : 526.18109 : 1"
       sodipodi:type="inkscape:persp3d" />
    <inkscape:perspective
       id="perspective3333"
       inkscape:persp3d-origin="372.04724 : 350.78739 : 1"
       inkscape:vp_z="744.09448 : 526.18109 : 1"
       inkscape:vp_y="0 : 1000 : 0"
       inkscape:vp_x="0 : 526.18109 : 1"
       sodipodi:type="inkscape:persp3d" />
    <inkscape:perspective
       id="perspective3401"
       inkscape:persp3d-origin="372.04724 : 350.78739 : 1"
       inkscape:vp_z="744.09448 : 526.18109 : 1"
       inkscape:vp_y="0 : 1000 : 0"
       inkscape:vp_x="0 : 526.18109 : 1"
       sodipodi:type="inkscape:persp3d" />
    <inkscape:perspective
       id="perspective3464"
       inkscape:persp3d-origin="372.04724 : 350.78739 : 1"
       inkscape:vp_z="744.09448 : 526.18109 : 1"
       inkscape:vp_y="0 : 1000 : 0"
       inkscape:vp_x="0 : 526.18109 : 1"
       sodipodi:type="inkscape:persp3d" />
    <inkscape:perspective
       id="perspective3581"
       inkscape:persp3d-origin="225 : 150 : 1"
       inkscape:vp_z="450 : 225 : 1"
       inkscape:vp_y="0 : 1000 : 0"
       inkscape:vp_x="0 : 225 : 1"
       sodipodi:type="inkscape:persp3d" />
    <inkscape:perspective
       id="perspective4312"
       inkscape:persp3d-origin="225 : 150 : 1"
       inkscape:vp_z="450 : 225 : 1"
       inkscape:vp_y="0 : 1000 : 0"
       inkscape:vp_x="0 : 225 : 1"
       sodipodi:type="inkscape:persp3d" />
  </defs>
  <g
     id="g1327">
    <path
       d="M 66.275,1.768 C 24.94,1.768 1.704,23.139 1.704,66.804 L 1.704,516.927 C 1.704,557.771 22.599,579.156 63.896,579.156 L 515.92,579.156 C 557.227,579.156 578.149,558.841 578.149,516.927 L 578.149,66.804 C 578.149,24.203 557.227,1.768 514.628,1.768 C 514.624,1.768 66.133,1.625 66.275,1.768 z "
       style="fill:#111;stroke:#eee;stroke-width:3.40799999"
       id="path1329" />
  </g>
  <g
     id="g6027"
     transform="matrix(1.5921213,0,0,1.5921213,-327.88936,-281.19085)"
     style="opacity:0.25">
    <path
       style="fill:#ffffff"
       d="M 374.94899,524.51727 C 369.27489,523.38906 358.24865,520.22228 350.44625,517.47994 C 310.45856,503.42541 271.84419,463.84573 257.43513,422.14366 C 252.40824,407.59516 249.16556,391.75337 249.35637,370.42133 C 249.54266,349.0742 252.40824,335.37905 257.43513,320.83055 C 271.17229,281.07309 305.91926,243.70022 344.23444,227.47162 C 358.1539,221.57597 389.07478,215.84195 406.94784,215.84195 C 433.58705,215.84195 484.02683,232.68381 494.23876,244.98842 C 499.45945,251.27898 494.60315,251.4922 468.8766,246.10196 C 448.28806,241.78825 441.45835,241.39042 425.53922,243.5776 C 379.70265,249.87521 338.46744,284.41876 321.98771,330.32475 C 314.2136,351.98031 314.18384,390.92458 321.92496,412.44177 C 337.95152,456.98921 378.54825,491.82571 423.3852,499.50596 C 437.3001,501.88947 443.68115,501.5065 466.51645,496.91736 C 481.25661,493.95509 494.27421,492.4531 495.44442,493.57961 C 498.16934,496.20277 485.91174,504.92576 467.93763,513.15461 C 441.39785,525.3049 402.6954,530.03412 374.94899,524.51727 z M 460.09505,422.0141 C 459.31453,420.75119 461.54991,411.268 465.06257,400.94037 C 468.57524,390.61271 471.44925,381.84522 471.44925,381.45706 C 471.44925,381.06893 463.92425,375.38163 454.72704,368.81863 C 445.52982,362.25562 438.00483,355.87664 438.00483,354.64311 C 438.00483,353.4096 447.55578,352.06411 459.22916,351.65312 L 480.45351,350.90593 L 487.14126,331.74009 C 490.81956,321.19885 495.04638,312.16844 496.53428,311.67249 C 498.02214,311.17654 502.34332,320.09058 506.13683,331.48149 L 513.03413,352.19225 L 534.90477,352.19225 C 546.96833,352.19225 556.39085,353.24284 555.91782,354.53518 C 555.44617,355.8238 547.82471,362.18871 538.98123,368.67942 C 530.13776,375.17016 522.90219,381.45958 522.90219,382.65594 C 522.90219,383.85233 525.21757,391.56093 528.04748,399.78623 C 533.00263,414.18865 534.59052,424.22637 531.91368,424.22637 C 531.21016,424.22637 523.55783,419.01676 514.90845,412.64946 C 506.25909,406.28215 498.10256,401.07255 496.78285,401.07255 C 495.46313,401.07255 488.35493,405.48911 480.98682,410.88715 C 463.1733,423.9377 461.7518,424.69478 460.09505,422.0141 z"
       id="path1873"
       sodipodi:nodetypes="csssssssssssssssccsssscccscccssssssssc" />
    <path
       id="path4510"
       d="M 496.11458,309.70606 C 490.63018,313.65493 489.57436,321.39399 486.67708,327.17481 C 484.04084,334.39746 481.59497,341.70419 479.02083,348.95606 C 465.14733,350.1382 450.44789,348.316 437.11458,352.64356 C 433.74823,356.61644 440.60881,359.72345 442.86458,362.29981 C 451.36219,369.27005 460.618,375.19673 469.20833,382.08106 C 465.55417,395.40903 458.81481,408.31083 458.05208,422.20606 C 460.34505,428.37227 467.35245,423.31998 470.56077,420.8854 C 479.3246,415.09967 487.51965,407.51527 496.95833,403.20606 C 509.02676,409.65901 519.28251,419.49266 531.33333,426.14356 C 536.71753,426.29806 535.1579,418.70447 534.52083,415.26856 C 532.53246,404.21136 527.00481,393.44468 525.20833,382.67481 C 535.11054,372.48596 548.26291,366.09053 557.70833,355.45606 C 558.31432,350.11901 550.47724,351.4086 547.08333,350.58106 C 536.22339,349.88435 525.33223,350.33434 514.45833,350.20606 C 509.3073,336.92385 506.95581,322.00536 498.52083,310.39356 C 497.86177,309.86421 496.99472,309.45559 496.11458,309.70606 z"
       style="fill:#ffffff;stroke:none;stroke-width:14.39999962;stroke-linecap:round;stroke-linejoin:round;stroke-miterlimit:4;stroke-dasharray:none;stroke-opacity:1" />
  </g>
  <g
     style="opacity:1"
     transform="matrix(1.5921213,0,0,1.5921213,-367.88936,-321.19085)"
     id="g6577">
    <path
       sodipodi:nodetypes="csssssssssssssssccsssscccscccssssssssc"
       id="path6579"
       d="M 374.94899,524.51727 C 369.27489,523.38906 358.24865,520.22228 350.44625,517.47994 C 310.45856,503.42541 271.84419,463.84573 257.43513,422.14366 C 252.40824,407.59516 249.16556,391.75337 249.35637,370.42133 C 249.54266,349.0742 252.40824,335.37905 257.43513,320.83055 C 271.17229,281.07309 305.91926,243.70022 344.23444,227.47162 C 358.1539,221.57597 389.07478,215.84195 406.94784,215.84195 C 433.58705,215.84195 484.02683,232.68381 494.23876,244.98842 C 499.45945,251.27898 494.60315,251.4922 468.8766,246.10196 C 448.28806,241.78825 441.45835,241.39042 425.53922,243.5776 C 379.70265,249.87521 338.46744,284.41876 321.98771,330.32475 C 314.2136,351.98031 314.18384,390.92458 321.92496,412.44177 C 337.95152,456.98921 378.54825,491.82571 423.3852,499.50596 C 437.3001,501.88947 443.68115,501.5065 466.51645,496.91736 C 481.25661,493.95509 494.27421,492.4531 495.44442,493.57961 C 498.16934,496.20277 485.91174,504.92576 467.93763,513.15461 C 441.39785,525.3049 402.6954,530.03412 374.94899,524.51727 z M 460.09505,422.0141 C 459.31453,420.75119 461.54991,411.268 465.06257,400.94037 C 468.57524,390.61271 471.44925,381.84522 471.44925,381.45706 C 471.44925,381.06893 463.92425,375.38163 454.72704,368.81863 C 445.52982,362.25562 438.00483,355.87664 438.00483,354.64311 C 438.00483,353.4096 447.55578,352.06411 459.22916,351.65312 L 480.45351,350.90593 L 487.14126,331.74009 C 490.81956,321.19885 495.04638,312.16844 496.53428,311.67249 C 498.02214,311.17654 502.34332,320.09058 506.13683,331.48149 L 513.03413,352.19225 L 534.90477,352.19225 C 546.96833,352.19225 556.39085,353.24284 555.91782,354.53518 C 555.44617,355.8238 547.82471,362.18871 538.98123,368.67942 C 530.13776,375.17016 522.90219,381.45958 522.90219,382.65594 C 522.90219,383.85233 525.21757,391.56093 528.04748,399.78623 C 533.00263,414.18865 534.59052,424.22637 531.91368,424.22637 C 531.21016,424.22637 523.55783,419.01676 514.90845,412.64946 C 506.25909,406.28215 498.10256,401.07255 496.78285,401.07255 C 495.46313,401.07255 488.35493,405.48911 480.98682,410.88715 C 463.1733,423.9377 461.7518,424.69478 460.09505,422.0141 z"
       style="fill:#ffffff" />
    <path
       style="fill:#ffffff;stroke:none;stroke-width:14.39999962;stroke-linecap:round;stroke-linejoin:round;stroke-miterlimit:4;stroke-dasharray:none;stroke-opacity:1"
       d="M 496.11458,309.70606 C 490.63018,313.65493 489.57436,321.39399 486.67708,327.17481 C 484.04084,334.39746 481.59497,341.70419 479.02083,348.95606 C 465.14733,350.1382 450.44789,348.316 437.11458,352.64356 C 433.74823,356.61644 440.60881,359.72345 442.86458,362.29981 C 451.36219,369.27005 460.618,375.19673 469.20833,382.08106 C 465.55417,395.40903 458.81481,408.31083 458.05208,422.20606 C 460.34505,428.37227 467.35245,423.31998 470.56077,420.8854 C 479.3246,415.09967 487.51965,407.51527 496.95833,403.20606 C 509.02676,409.65901 519.28251,419.49266 531.33333,426.14356 C 536.71753,426.29806 535.1579,418.70447 534.52083,415.26856 C 532.53246,404.21136 527.00481,393.44468 525.20833,382.67481 C 535.11054,372.48596 548.26291,366.09053 557.70833,355.45606 C 558.31432,350.11901 550.47724,351.4086 547.08333,350.58106 C 536.22339,349.88435 525.33223,350.33434 514.45833,350.20606 C 509.3073,336.92385 506.95581,322.00536 498.52083,310.39356 C 497.86177,309.86421 496.99472,309.45559 496.11458,309.70606 z"
       id="path6581" />
  </g>
</svg>
